X: 10411
Q: "Moderate."
M: C
L: 1/16
K: D
|:\
|:\
(f2d2)(e2c2) (d2B2)(c2A2) | (B2A2)(G2F2) (E3D)(E2F2) |\
(D2E2)(F2G2) (A2B2)(c2A2) | (d3e)(f2D2) F4A4 :|\
|:\
d4(f3e) (defg) (a2f2) | (b2a2)(g2f2) Te3d(e2f2) |\
(d2f2)(A2d2) (FEFG) (A2F2) | (BABc) (BcdA) (F3G)(A2F2) |
(BABc) (BcdB) (FEFG) (FGAF) | (BcAB) (GAFG) (TE3D)(E2F2) |\
|:\
(fdTd>cd/) (ecTc>Bc/) (dBTB>AB/) (cATA>GA/) | (BcAB) (GAFG) TE3DE2F2 |\


